X: 9649
T: Day Trip To Galway
R: reel
M: 4/4
K: Dmajor
AG|F2DE FGAd|cAAB AGEG|F2DE FGAd|cage d2AG|
F2DE FGAd|cAA2 eAA2|f2fd Adfa|geaf d2cd|
eAA2 dcAG|F2FD FGA2|eAA2 fAA2|g2fe d2cd|
eAA2 dcAG|F2FD FGAF|G2GA BAGB|Agfe d3|
F|G2GA BGEG|F2FG AFDF|G2GA BAGB|Agfe d3F|
G2GA BGEG|F2FG AFDF|G2GA BAGB|Agfe d3|

